assets/features/channel/southeast-asia1/BDO.svg

<svg width="80" height="80" viewBox="0 0 80 80" fill="none" xmlns="http://www.w3.org/2000/svg">
<rect width="80" height="80" rx="8" fill="#064CAF"/>
<g clip-path="url(#clip0_2497_22862)">
<path fill-rule="evenodd" clip-rule="evenodd" d="M23.6106 30.3234C27.6312 30.8708 28.2896 32.9681 28.4634 34.5105C28.6447 36.1305 27.8642 37.673 26.1295 38.6642C28.4153 39.2967 29.4806 40.362 29.9725 41.4568V30.2568L38.3466 30.2901C46.7133 30.6859 49.0362 36.0714 49.0769 39.5778C49.1139 42.9401 46.5987 48.0666 39.1641 48.566L29.9725 48.6325V45.5625C29.6026 46.3134 29.0367 46.9015 28.4671 47.3416C27.4277 48.1517 25.9482 48.4661 24.6277 48.5992L12.0999 48.6695L12 30.2568L23.6106 30.3234ZM16.2906 32.7202V37.9615L21.2248 37.98C23.3997 37.869 24.0026 36.4671 23.9989 35.3945C23.9915 34.4069 23.5329 33.1012 21.2248 32.687L16.2906 32.7202ZM34.3667 46.1506L37.126 46.1839C43.107 46.1987 44.1242 42.0006 44.139 39.478C44.1575 36.4412 42.4412 32.6759 37.126 32.7387L34.4333 32.7018L34.3667 46.1506ZM16.3091 40.4656V46.2024H22.7413C25.4933 45.9879 26.0111 44.3604 25.9593 43.2582C25.9038 42.0043 25.0235 40.6357 22.6748 40.399L16.3091 40.4656Z" fill="white"/>
<path fill-rule="evenodd" clip-rule="evenodd" d="M57.1182 49.2798C51.1039 49.2798 46.24 44.9078 46.24 39.5002C46.24 34.0888 51.1039 29.7168 57.1182 29.7168C63.1362 29.7168 68.0001 34.0888 68.0001 39.5002C68.0001 44.9078 63.1362 49.2798 57.1182 49.2798ZM63.4543 39.4336C63.4543 35.2798 60.6469 31.925 57.1774 31.925C53.7079 31.925 50.9005 35.2798 50.9005 39.4336C50.9005 43.5873 53.7079 46.9422 57.1774 46.9422C60.6469 46.9422 63.4543 43.5873 63.4543 39.4336Z" fill="#FFB20C"/>
</g>
<defs>
<clipPath id="clip0_2497_22862">
<rect width="56" height="19.5667" fill="white" transform="translate(12 29.7168)"/>
</clipPath>
</defs>
</svg>

<svg xmlns="http://www.w3.org/2000/svg" width="80" height="80" fill="none" viewBox="0 0 80 80"><rect width="80" height="80" fill="#064caf" rx="8"/><g fill-rule="evenodd" clip-path="url(#a)" clip-rule="evenodd"><path fill="#fff" d="M23.61 30.323c4.021.548 4.68 2.645 4.853 4.188.182 1.62-.599 3.162-2.334 4.153 2.286.633 3.352 1.698 3.843 2.793v-11.2l8.375.033c8.366.396 10.69 5.781 10.73 9.288.037 3.362-2.478 8.489-9.913 8.988l-9.192.066v-3.07c-.37.751-.935 1.34-1.505 1.78-1.04.81-2.519 1.124-3.84 1.257l-12.527.07-.1-18.412zm-7.32 2.397v5.242l4.935.018c2.175-.111 2.778-1.513 2.774-2.585-.008-.988-.466-2.294-2.774-2.708zm18.077 13.43 2.759.034c5.981.015 6.998-4.183 7.013-6.706.018-3.037-1.698-6.802-7.013-6.74l-2.693-.036zm-18.058-5.684v5.736h6.432c2.752-.214 3.27-1.842 3.218-2.944-.055-1.254-.936-2.622-3.284-2.859z"/><path fill="#ffb20c" d="M57.118 49.28c-6.014 0-10.878-4.372-10.878-9.78 0-5.411 4.864-9.783 10.878-9.783C63.136 29.717 68 34.089 68 39.5c0 5.408-4.864 9.78-10.882 9.78m6.336-9.846c0-4.154-2.807-7.509-6.277-7.509s-6.276 3.355-6.276 7.509c0 4.153 2.807 7.508 6.276 7.508 3.47 0 6.277-3.355 6.277-7.508"/></g><defs><clipPath id="a"><path fill="#fff" d="M12 29.717h56v19.567H12z"/></clipPath></defs></svg>
